packages/icons/svg/Navigation_Display_DisplayMobile--Horizontal_24px.svg

<svg xmlns="http://www.w3.org/2000/svg" viewBox="0 0 24 24"><path d="M10 13H3a1 1 0 00-1 1v7a1 1 0 001 1h7a1 1 0 001-1v-7a1 1 0 00-1-1zm-1 7H4v-5h5zM21 14h-7a1 1 0 000 2h7a1 1 0 000-2zM21 19h-7a1 1 0 000 2h7a1 1 0 000-2zM10 2H3a1 1 0 00-1 1v7a1 1 0 001 1h7a1 1 0 001-1V3a1 1 0 00-1-1zM9 9H4V4h5zM14 5h7a1 1 0 000-2h-7a1 1 0 000 2zM21 8h-7a1 1 0 000 2h7a1 1 0 000-2z"/></svg>

<svg xmlns="http://www.w3.org/2000/svg" viewBox="0 0 24 24"><defs></defs><g id="Calque_5" ><path  d="M10,13H3a1,1,0,0,0-1,1v7a1,1,0,0,0,1,1h7a1,1,0,0,0,1-1V14A1,1,0,0,0,10,13ZM9,20H4V15H9Z"/><path  d="M21,14H14a1,1,0,0,0,0,2h7a1,1,0,0,0,0-2Z"/><path  d="M21,19H14a1,1,0,0,0,0,2h7a1,1,0,0,0,0-2Z"/><path  d="M10,2H3A1,1,0,0,0,2,3v7a1,1,0,0,0,1,1h7a1,1,0,0,0,1-1V3A1,1,0,0,0,10,2ZM9,9H4V4H9Z"/><path  d="M14,5h7a1,1,0,0,0,0-2H14a1,1,0,0,0,0,2Z"/><path  d="M21,8H14a1,1,0,0,0,0,2h7a1,1,0,0,0,0-2Z"/></g></svg>
